;FLAVOR:Marlin
;TIME:27206
;Filament used: 20.8111m
;Layer height: 0.2
;MINX:0
;MINY:34
;MINZ:0.2
;MAXX:300
;MAXY:266
;MAXZ:5.2
;TARGET_MACHINE.NAME:Creality K1 Max
;Generated with Cura_SteamEngine 5.10.0
M140 S0
M104 S0 
START_PRINT EXTRUDER_TEMP=200 BED_TEMP=60

M82 ;absolute extrusion mode
G92 E0
G92 E0
G1 F2400 E-0.5
;LAYER_COUNT:26
;LAYER:0
M107
G0 F6000 X0.00 Y63.447 Z0.2
;TYPE:SKIRT
G1 F2400 E0
G1 F1200 X25.863 Y37.582 E1.21656
G1 X26.375 Y37.086 E1.24027
G1 X27.078 Y36.464 E1.27149
G1 X27.89 Y35.866 E1.30503
G1 X28.724 Y35.36 E1.33748
G1 X29.597 Y34.932 E1.36982
G1 X30.506 Y34.582 E1.40221
G1 X31.443 Y34.312 E1.43465
G1 X32.416 Y34.126 E1.46759
G1 X33.755 Y34.014 E1.51229
G1 X34.549 Y34 E1.5387
G1 X265.304 Y34 E9.21364
G1 X266.186 Y34.013 E9.24298
G1 X267.158 Y34.072 E9.27537
G1 X268.121 Y34.218 E9.30776
G1 X269.069 Y34.449 E9.34022
G1 X269.925 Y34.737 E9.37026
G1 X270.881 Y35.156 E9.40497
G1 X271.734 Y35.627 E9.43738
G1 X272.546 Y36.176 E9.46998
G1 X273.435 Y36.909 E9.5083
G1 X273.925 Y37.372 E9.53073
G1 X300 Y63.445 E10.75717
G0 F6000 X300 Y64.011
G1 F1200 X273.642 Y37.655 E11.99692
G1 X273.16 Y37.2 E12.01897
G1 X272.292 Y36.485 E12.05637
G1 X271.511 Y35.959 E12.08769
G1 X270.688 Y35.506 E12.11893
G1 X269.797 Y35.116 E12.15128
G1 X268.941 Y34.828 E12.18132
G1 X268.027 Y34.607 E12.2126
G1 X267.099 Y34.468 E12.24381
G1 X266.162 Y34.412 E12.27503
G1 X265.298 Y34.4 E12.30377
G1 X34.556 Y34.4 E19.97828
G1 X33.788 Y34.413 E20.00382
G1 X32.449 Y34.525 E20.04852
G1 X31.519 Y34.705 E20.08002
G1 X30.617 Y34.966 E20.11125
G1 X29.742 Y35.305 E20.14246
G1 X28.901 Y35.719 E20.17364
G1 X28.098 Y36.208 E20.20491
G1 X27.343 Y36.764 E20.2361
G1 X26.64 Y37.386 E20.26732
G1 X26.141 Y37.869 E20.29041
G1 X0.00 Y64.013 E21.52008
G0 F6000 X0.00 Y64.579
G1 F1200 X26.419 Y38.156 E22.76284
G1 X26.905 Y37.685 E22.78535
G1 X27.581 Y37.086 E22.81539
G1 X28.307 Y36.549 E22.84543
G1 X29.078 Y36.078 E22.87548
G1 X29.887 Y35.678 E22.90549
G1 X30.729 Y35.35 E22.93555
G1 X31.596 Y35.098 E22.96558
G1 X32.482 Y34.924 E22.99561
G1 X33.821 Y34.812 E23.0403
G1 X34.562 Y34.8 E23.06495
G1 X265.293 Y34.8 E30.73909
G1 X266.139 Y34.811 E30.76723
G1 X267.041 Y34.864 E30.79729
G1 X267.934 Y34.996 E30.82731
G1 X268.813 Y35.207 E30.85738
G1 X269.669 Y35.495 E30.88741
G1 X270.496 Y35.857 E30.91744
G1 X271.288 Y36.291 E30.94748
G1 X272.038 Y36.794 E30.97751
G1 X272.906 Y37.509 E31.01492
G1 X273.359 Y37.938 E31.03567
G1 X300 Y64.577 E32.28873
G1 F2400 E31.78873
G0 F6000 X300 Y238.895
G1 F2400 E32.28873
G1 F1200 X299.355 Y240.14 E32.33537
G1 X298.976 Y240.8 E32.36068
G1 X298.609 Y241.387 E32.38371
G1 X296.941 Y243.956 E32.48558
G1 X296.443 Y244.695 E32.51522
G1 X296.032 Y245.263 E32.53854
G1 X295.618 Y245.795 E32.56096
G1 X293.705 Y248.155 E32.662
G1 X293.143 Y248.828 E32.69117
G1 X292.782 Y249.238 E32.70934
G1 X292.366 Y249.678 E32.72948
G1 X289.901 Y252.145 E32.84547
G1 X289.403 Y252.628 E32.86854
G1 X288.979 Y253.016 E32.88766
G1 X288.527 Y253.402 E32.90743
G1 X285.961 Y255.484 E33.01733
G1 X285.191 Y256.087 E33.04986
G1 X284.432 Y256.628 E33.08086
G1 X281.585 Y258.479 E33.19381
G1 X280.834 Y258.953 E33.22335
G1 X280.365 Y259.23 E33.24146
G1 X279.807 Y259.534 E33.2626
G1 X276.756 Y261.091 E33.37652
G1 X275.994 Y261.464 E33.40474
G1 X275.141 Y261.834 E33.43567
G1 X271.834 Y263.106 E33.55351
G1 X271.14 Y263.362 E33.57812
G1 X270.39 Y263.608 E33.60437
G1 X269.72 Y263.797 E33.62752
G1 X266.693 Y264.608 E33.73175
G1 X265.945 Y264.795 E33.7574
G1 X265.251 Y264.944 E33.78101
G1 X264.593 Y265.06 E33.80323
G1 X261.416 Y265.563 E33.91021
G1 X260.76 Y265.657 E33.93225
G1 X260.196 Y265.724 E33.95114
G1 X259.573 Y265.771 E33.97192
G1 X256.281 Y265.948 E34.08157
G1 X254.905 Y265.994 E34.12737
G1 X45.692 Y266 E41.08582
G1 X44.355 Y265.974 E41.1303
G1 X40.978 Y265.804 E41.24276
G1 X40.036 Y265.742 E41.27416
G1 X39.306 Y265.667 E41.29856
G1 X38.672 Y265.578 E41.31986
G1 X35.47 Y265.07 E41.42769
G1 X34.789 Y264.953 E41.45067
G1 X34.086 Y264.805 E41.47457
G1 X33.397 Y264.633 E41.49819
G1 X30.441 Y263.841 E41.59997
G1 X29.615 Y263.608 E41.62851
G1 X28.886 Y263.373 E41.65399
G1 X28.184 Y263.114 E41.67888
G1 X25.418 Y262.053 E41.77741
G1 X24.609 Y261.728 E41.80641
G1 X23.96 Y261.442 E41.83
G1 X23.273 Y261.107 E41.85542
G1 X20.528 Y259.707 E41.95791
G1 X19.837 Y259.342 E41.9839
G1 X19.197 Y258.974 E42.00845
G1 X18.613 Y258.609 E42.03136
G1 X16.044 Y256.941 E42.13323
G1 X15.305 Y256.443 E42.16287
G1 X14.737 Y256.032 E42.18619
G1 X14.205 Y255.618 E42.20861
G1 X11.845 Y253.705 E42.30966
G1 X11.102 Y253.086 E42.34182
G1 X10.405 Y252.449 E42.37323
G1 X7.976 Y250.022 E42.48743
G1 X7.384 Y249.415 E42.51563
G1 X6.873 Y248.852 E42.54092
G1 X6.416 Y248.306 E42.5646
G1 X4.424 Y245.844 E42.66994
G1 X3.996 Y245.3 E42.69296
G1 X3.648 Y244.831 E42.71238
G1 X3.309 Y244.335 E42.73236
G1 X1.433 Y241.451 E42.84679
G1 X1.049 Y240.839 E42.87082
G1 X0.77 Y240.365 E42.88912
G1 X0.466 Y239.807 E42.91025
G1 X0.00 Y238.894 E42.94435
G0 F6000 X0.00 Y238.014
G1 F1200 X0.822 Y239.625 E43.0045
G1 X1.121 Y240.174 E43.02529
G1 X1.388 Y240.626 E43.04275
G1 X1.772 Y241.238 E43.06678
G1 X3.644 Y244.117 E43.181
G1 X3.978 Y244.605 E43.20067
G1 X4.317 Y245.062 E43.2196
G1 X4.738 Y245.596 E43.24221
G1 X6.727 Y248.054 E43.34738
G1 X7.18 Y248.595 E43.37085
G1 X7.68 Y249.146 E43.3956
G1 X8.262 Y249.743 E43.42333
G1 X10.688 Y252.166 E43.53737
G1 X11.372 Y252.791 E43.56818
G1 X12.101 Y253.398 E43.59974
G1 X14.457 Y255.307 E43.70059
G1 X14.983 Y255.717 E43.72277
G1 X15.539 Y256.119 E43.74559
G1 X16.267 Y256.609 E43.77478
G1 X18.831 Y258.274 E43.87646
G1 X19.409 Y258.635 E43.89913
G1 X20.036 Y258.995 E43.92317
G1 X20.715 Y259.353 E43.94871
G1 X23.455 Y260.751 E44.05101
G1 X24.135 Y261.082 E44.07617
G1 X24.77 Y261.362 E44.09925
G1 X25.567 Y261.682 E44.12782
G1 X28.327 Y262.741 E44.22614
G1 X29.009 Y262.992 E44.25031
G1 X29.738 Y263.227 E44.27579
G1 X30.55 Y263.456 E44.30385
G1 X33.501 Y264.247 E44.40546
G1 X34.183 Y264.417 E44.42884
G1 X34.871 Y264.561 E44.45222
G1 X35.538 Y264.676 E44.47473
G1 X38.735 Y265.183 E44.58239
G1 X39.362 Y265.271 E44.60345
G1 X40.077 Y265.344 E44.62735
G1 X41.004 Y265.405 E44.65825
G1 X44.375 Y265.575 E44.77052
G1 X45.7 Y265.6 E44.81459
G1 X254.905 Y265.594 E51.77278
G1 X256.267 Y265.548 E51.81811
G1 X259.552 Y265.372 E51.92752
G1 X260.165 Y265.325 E51.94797
G1 X260.713 Y265.26 E51.96632
G1 X261.359 Y265.167 E51.98803
G1 X264.53 Y264.665 E52.09481
G1 X265.181 Y264.55 E52.1168
G1 X265.861 Y264.404 E52.13993
G1 X266.596 Y264.22 E52.16513
G1 X269.617 Y263.411 E52.26915
G1 X270.281 Y263.223 E52.29211
G1 X271.015 Y262.982 E52.3178
G1 X271.695 Y262.731 E52.34191
G1 X274.997 Y261.461 E52.45958
G1 X275.835 Y261.097 E52.48997
G1 X276.58 Y260.732 E52.51756
G1 X279.625 Y259.178 E52.63126
G1 X280.174 Y258.879 E52.65205
G1 X280.63 Y258.609 E52.66968
G1 X281.372 Y258.141 E52.69886
G1 X284.214 Y256.293 E52.81161
G1 X284.959 Y255.761 E52.84206
G1 X285.714 Y255.169 E52.87397
G1 X288.275 Y253.091 E52.98366
G1 X288.719 Y252.712 E53.00308
G1 X289.133 Y252.333 E53.02174
G1 X289.623 Y251.858 E53.04444
G1 X292.083 Y249.395 E53.16022
G1 X292.492 Y248.963 E53.18001
G1 X292.843 Y248.564 E53.19769
G1 X293.398 Y247.899 E53.22649
G1 X295.307 Y245.543 E53.32735
G1 X295.717 Y245.017 E53.34953
G1 X296.119 Y244.461 E53.37235
G1 X296.609 Y243.733 E53.40154
G1 X298.274 Y241.169 E53.50322
G1 X298.637 Y240.588 E53.52601
G1 X299.008 Y239.941 E53.55081
G1 X299.36 Y239.271 E53.57599
G1 X300 Y238.014 E53.6229
G0 F6000 X300 Y237.133
G1 F1200 X299.006 Y239.085 E53.69576
G1 X298.661 Y239.742 E53.72044
G1 X298.298 Y240.376 E53.74474
G1 X297.939 Y240.951 E53.76728
G1 X296.277 Y243.51 E53.86877
G1 X295.795 Y244.227 E53.89751
G1 X295.402 Y244.771 E53.91983
G1 X294.996 Y245.291 E53.94177
G1 X293.091 Y247.643 E54.04244
G1 X292.543 Y248.3 E54.07089
G1 X292.202 Y248.688 E54.08808
G1 X291.8 Y249.112 E54.10751
G1 X289.345 Y251.571 E54.22308
G1 X288.863 Y252.038 E54.2454
G1 X288.459 Y252.408 E54.26362
G1 X288.023 Y252.78 E54.28268
G1 X285.467 Y254.854 E54.39216
G1 X284.726 Y255.436 E54.4235
G1 X283.996 Y255.958 E54.45335
G1 X281.159 Y257.803 E54.56591
G1 X280.426 Y258.265 E54.59473
G1 X279.983 Y258.528 E54.61186
G1 X279.443 Y258.822 E54.63231
G1 X276.404 Y260.373 E54.74579
G1 X275.675 Y260.73 E54.77279
G1 X274.853 Y261.088 E54.80261
G1 X271.556 Y262.356 E54.9201
G1 X270.89 Y262.602 E54.94371
G1 X270.172 Y262.838 E54.96885
G1 X269.514 Y263.025 E54.9916
G1 X266.499 Y263.832 E55.09541
G1 X265.777 Y264.013 E55.12017
G1 X265.111 Y264.156 E55.14282
G1 X264.467 Y264.27 E55.16458
G1 X261.302 Y264.771 E55.27116
G1 X260.666 Y264.863 E55.29253
G1 X260.134 Y264.926 E55.31035
G1 X259.531 Y264.973 E55.33046
G1 X256.253 Y265.148 E55.43965
G1 X254.905 Y265.194 E55.48451
G1 X45.707 Y265.2 E62.44246
G1 X44.395 Y265.176 E62.48611
G1 X41.03 Y265.006 E62.59817
G1 X40.117 Y264.946 E62.6286
G1 X39.418 Y264.875 E62.65197
G1 X38.798 Y264.788 E62.67279
G1 X35.606 Y264.282 E62.78028
G1 X34.953 Y264.169 E62.80233
G1 X34.265 Y264.025 E62.8257
G1 X33.605 Y263.861 E62.84832
G1 X30.659 Y263.071 E62.94977
G1 X29.861 Y262.846 E62.97735
G1 X29.147 Y262.616 E63.0023
G1 X28.47 Y262.368 E63.02628
G1 X25.716 Y261.311 E63.12439
G1 X24.931 Y260.996 E63.15252
G1 X24.31 Y260.722 E63.1751
G1 X23.637 Y260.395 E63.19998
G1 X20.901 Y258.999 E63.30215
G1 X20.235 Y258.648 E63.32718
G1 X19.621 Y258.296 E63.35072
G1 X19.049 Y257.939 E63.37315
G1 X16.49 Y256.277 E63.47464
G1 X15.773 Y255.795 E63.50337
G1 X15.229 Y255.402 E63.52569
G1 X14.709 Y254.996 E63.54764
G1 X12.357 Y253.091 E63.64831
G1 X11.642 Y252.495 E63.67927
G1 X10.971 Y251.883 E63.70947
G1 X8.548 Y249.464 E63.82335
G1 X7.976 Y248.877 E63.85061
G1 X7.487 Y248.338 E63.87481
G1 X7.038 Y247.802 E63.89807
G1 X5.052 Y245.349 E64.00304
G1 X4.638 Y244.823 E64.02531
G1 X4.308 Y244.379 E64.04371
G1 X3.979 Y243.899 E64.06306
G1 X2.111 Y241.025 E64.17707
G1 X1.732 Y240.422 E64.20076
G1 X1.472 Y239.983 E64.21773
G1 X1.178 Y239.443 E64.23818
G1 X0.00 Y237.135 E64.32436
G1 F2400 E63.82436
;MESH:CYBERDECK PANEL EDITED.obj
G0 F6000 X29.205 Y237.135
G0 X150 Y240.597
;TYPE:WALL-INNER
G1 F2400 E64.32436
G1 F1200 X29.943 Y240.6 E68.31747
G1 X29.66 Y240.496 E68.3275
G1 X29.519 Y240.36 E68.33402
G1 X29.403 Y240.068 E68.34447
G1 X29.4 Y94.966 E73.17058
G1 X29.462 Y94.733 E73.1786
G1 X29.573 Y94.578 E73.18494
G1 X29.791 Y94.437 E73.19358
G1 X29.964 Y94.4 E73.19946
G1 X269.129 Y94.4 E81.15412
G1 X269.405 Y94.556 E81.16466
G1 X269.502 Y94.67 E81.16964
G1 X269.599 Y94.899 E81.17792
G1 X269.601 Y240.1 E86.00732
G1 X269.522 Y240.299 E86.01444
G1 X269.335 Y240.499 E86.02355
G1 X269.087 Y240.594 E86.03238
G1 X150 Y240.597 E89.99323
G1 F2400 E89.49323
G0 F6000 X150 Y254.2
G0 X150 Y254.4
G1 F2400 E89.99323
G1 F1200 X254.972 Y254.4 E93.48461
G1 X259.121 Y254.182 E93.6228
G1 X263.195 Y253.536 E93.75999
G1 X267.17 Y252.472 E93.89686
G1 X271.019 Y250.995 E94.03398
G1 X274.703 Y249.115 E94.17154
G1 X278.154 Y246.873 E94.30842
G1 X281.354 Y244.285 E94.4453
G1 X284.289 Y241.35 E94.58336
G1 X286.873 Y238.154 E94.72005
G1 X289.115 Y234.703 E94.85693
G1 X290.995 Y231.019 E94.99449
G1 X292.472 Y227.17 E95.13161
G1 X293.536 Y223.195 E95.26847
G1 X294.182 Y219.121 E95.40567
G1 X294.4 Y214.972 E95.54386
G1 X294.4 Y74.249 E100.22432
G1 X265.747 Y45.601 E101.57195
G1 X154.125 Y45.601 E105.28452
G1 X155.395 Y45.871 E105.3277
G1 X157.408 Y46.767 E105.40099
G1 X159.21 Y48.077 E105.47509
G1 X160.688 Y49.719 E105.54856
G1 X161.799 Y51.64 E105.62237
G1 X162.48 Y53.753 E105.69621
G1 X162.712 Y55.937 E105.76926
G1 X162.484 Y58.135 E105.84276
G1 X161.798 Y60.262 E105.91709
G1 X160.687 Y62.188 E105.99104
G1 X159.206 Y63.835 E106.06471
G1 X157.416 Y65.138 E106.13835
G1 X155.388 Y66.038 E106.21215
G1 X153.223 Y66.5 E106.28578
G1 X151.003 Y66.5 E106.35961
G1 X148.836 Y66.038 E106.43331
G1 X146.808 Y65.138 E106.5071
G1 X145.018 Y63.835 E106.58074
G1 X143.537 Y62.188 E106.65441
G1 X142.427 Y60.263 E106.72832
G1 X141.736 Y58.134 E106.80277
G1 X141.512 Y55.98 E106.8748
G1 X141.74 Y53.758 E106.94909
G1 X142.425 Y51.641 E107.02309
G1 X143.536 Y49.719 E107.09693
G1 X145.016 Y48.075 E107.1705
G1 X146.81 Y46.769 E107.24431
G1 X148.831 Y45.871 E107.31786
G1 X150.099 Y45.601 E107.36098
G1 X34.249 Y45.6 E111.21417
G1 X5.6 Y74.249 E112.56173
G1 X5.6 Y214.992 E117.24286
G1 X5.818 Y219.121 E117.38039
G1 X6.46 Y223.195 E117.51756
G1 X7.528 Y227.17 E117.65446
G1 X9.005 Y231.019 E117.79158
G1 X10.881 Y234.703 E117.92908
G1 X13.123 Y238.154 E118.06596
G1 X15.707 Y241.35 E118.20265
G1 X18.642 Y244.285 E118.34071
G1 X21.842 Y246.873 E118.47759
G1 X25.293 Y249.115 E118.61447
G1 X28.977 Y250.995 E118.75203
G1 X32.826 Y252.472 E118.88915
G1 X36.801 Y253.536 E119.02601
G1 X40.879 Y254.182 E119.16334
G1 X45.024 Y254.4 E119.30139
G1 X150 Y254.4 E122.79291
G1 F2400 E122.29291
G0 F6000 X150 Y93.26
G0 X150 Y93.08
G1 F2400 E122.79291
G1 F1200 X119.008 Y93.08 E123.82371
G1 X118.648 Y92.96 E123.83633
G1 X118.454 Y92.711 E123.84683
G1 X118.408 Y92.48 E123.85466
G1 X118.408 Y86.386 E124.05735
G1 X118.478 Y86.197 E124.06405
G1 X118.594 Y86.045 E124.07041
G1 X118.777 Y85.926 E124.07767
G1 X118.935 Y85.88 E124.08314
G1 X186.508 Y85.88 E126.33063
G1 X186.739 Y85.926 E126.33847
G1 X186.922 Y86.045 E126.34573
G1 X187.038 Y86.197 E126.35209
G1 X187.108 Y86.386 E126.35879
G1 X187.108 Y92.48 E126.56148
G1 X187.062 Y92.711 E126.56931
G1 X186.868 Y92.96 E126.57981
G1 X186.594 Y93.08 E126.58976
G1 X150 Y93.08 E127.80688
G1 F2400 E127.30688
G0 F6000 X118.572 Y92.919
G0 X118.572 Y86.043
G0 X149.936 Y85.7
G0 X149.936 Y83.44
G0 X149.936 Y83.257
G1 F2400 E127.80688
G1 F1200 X95.059 Y83.26 E129.6321
G1 X94.775 Y83.141 E129.64234
G1 X94.676 Y83.046 E129.6469
G1 X94.537 Y82.794 E129.65647
G1 X94.541 Y72.576 E129.99633
G1 X94.643 Y72.316 E130.00561
G1 X94.788 Y72.17 E130.01246
G1 X95.101 Y72.06 E130.02349
G1 X216.172 Y72.061 E134.05033
G1 X216.374 Y72.108 E134.05723
G1 X216.633 Y72.322 E134.0684
G1 X216.732 Y72.583 E134.07769
G1 X216.735 Y82.794 E134.41731
G1 X216.596 Y83.046 E134.42688
G1 X216.367 Y83.214 E134.43633
G1 X216.216 Y83.255 E134.44153
G1 X149.936 Y83.257 E136.64601
G1 F2400 E136.14601
G0 F6000 X216.547 Y83.07
G0 X254.599 Y83.07
G0 X255.008 Y90.932
G1 F2400 E136.64601
G1 F1200 X254.813 Y90.9 E136.65258
G1 X254.528 Y90.693 E136.6643
G1 X254.408 Y90.411 E136.67449
G1 X254.408 Y60.299 E137.67602
G1 X254.487 Y60.033 E137.68525
G1 X254.618 Y59.875 E137.69208
G1 X254.766 Y59.782 E137.69789
G1 X254.945 Y59.735 E137.70405
G1 X257.584 Y59.736 E137.79182
G1 X257.878 Y59.859 E137.80242
G1 X257.997 Y59.983 E137.80814
G1 X258.108 Y60.24 E137.81745
G1 X258.109 Y90.332 E138.81831
G1 X258.024 Y90.64 E138.82894
G1 X257.907 Y90.781 E138.83503
G1 X257.584 Y90.932 E138.84689
G1 X255.008 Y90.932 E138.93257
G1 F2400 E138.43257
G0 F6000 X257.947 Y90.773
G0 X258.255 Y90.563
G0 X260.042 Y90.546
G0 X260.511 Y90.62
G1 F2400 E138.93257
G1 F1200 X260.318 Y90.539 E138.93953
G1 X260.092 Y90.307 E138.9503
G1 X260.02 Y90.11 E138.95728
G1 X260.02 Y60.02 E139.95808
G1 X260.071 Y59.775 E139.9664
G1 X260.297 Y59.513 E139.97791
G1 X260.558 Y59.423 E139.98709
G1 X263.242 Y59.42 E140.07636
G1 X263.489 Y59.546 E140.08558
G1 X263.61 Y59.673 E140.09142
G1 X263.72 Y59.932 E140.10078
G1 X263.72 Y90.02 E141.10151
G1 X263.637 Y90.326 E141.11205
G1 X263.52 Y90.468 E141.11817
G1 X263.192 Y90.62 E141.1302
G1 X260.511 Y90.62 E141.21937
G1 F2400 E140.71937
G0 F6000 X263.561 Y90.461
G0 X263.901 Y90.019
G0 X265.719 Y89.812
G0 X266.388 Y90.312
G1 F2400 E141.21937
G1 F1200 X266.188 Y90.225 E141.22662
G1 X265.966 Y89.988 E141.23742
G1 X265.9 Y89.795 E141.24421
G1 X265.9 Y59.712 E142.24477
G1 X265.955 Y59.459 E142.25338
G1 X266.052 Y59.312 E142.25924
G1 X266.26 Y59.161 E142.26779
G1 X266.5 Y59.112 E142.27594
G1 X269.07 Y59.112 E142.36141
G1 X269.294 Y59.188 E142.36928
G1 X269.524 Y59.418 E142.3801
G1 X269.6 Y59.642 E142.38797
G1 X269.599 Y89.753 E143.38946
G1 X269.544 Y89.968 E143.39684
G1 X269.312 Y90.225 E143.40836
G1 X269 Y90.312 E143.41913
G1 X266.388 Y90.312 E143.50601
G1 F2400 E143.00601
G0 F6000 X265.719 Y89.812
G0 X44.516 Y90.49
G0 X43.892 Y90.62
G1 F2400 E143.50601
